assets/images/icons/topic-item-icon.svg

<svg enable-background="new 0 0 512 512" viewBox="0 0 512 512" xmlns="http://www.w3.org/2000/svg"><path d="m447.938 129.704c-.089-2.997-1.283-5.921-3.49-8.128l-118.065-118.065c-.005-.005-.01-.007-.014-.012-2.169-2.162-5.16-3.499-8.462-3.499h-228.629c-13.917 0-25.238 11.32-25.238 25.237v461.525c0 13.916 11.32 25.237 25.237 25.237h333.444c13.916 0 25.237-11.32 25.237-25.237v-356.71c.002-.118-.012-.232-.02-.348zm-118.043-88.773 77.135 77.135h-72.076c-2.79 0-5.059-2.269-5.059-5.059zm94.089 445.833c-.001.694-.567 1.26-1.262 1.26h-333.444c-.695 0-1.261-.566-1.261-1.261v-461.526c0-.695.566-1.261 1.261-1.261h216.641v89.031c0 16.009 13.025 29.035 29.035 29.035h89.031v344.722z" fill="#c3cfd8"/></svg>

<?xml version="1.0" encoding="iso-8859-1"?>
<!-- Generator: Adobe Illustrator 19.0.0, SVG Export Plug-In . SVG Version: 6.00 Build 0)  -->
<svg version="1.1" id="Layer_1" xmlns="http://www.w3.org/2000/svg" xmlns:xlink="http://www.w3.org/1999/xlink" x="0px" y="0px"
	 viewBox="0 0 512 512" style="enable-background:new 0 0 512 512;" xml:space="preserve">
<g fill="#c3cfd8">
	<g>
		<path d="M447.938,129.704c-0.089-2.997-1.283-5.921-3.49-8.128L326.383,3.511c-0.005-0.005-0.01-0.007-0.014-0.012
			C324.2,1.337,321.209,0,317.907,0H89.278C75.361,0,64.04,11.32,64.04,25.237v461.525c0,13.916,11.32,25.237,25.237,25.237h333.444
			c13.916,0,25.237-11.32,25.237-25.237v-356.71C447.96,129.934,447.946,129.82,447.938,129.704z M329.895,40.931l77.135,77.135
			h-72.076c-2.79,0-5.059-2.269-5.059-5.059V40.931z M423.984,486.764c-0.001,0.694-0.567,1.26-1.262,1.26H89.278
			c-0.695,0-1.261-0.566-1.261-1.261V25.237c0-0.695,0.566-1.261,1.261-1.261h216.641v89.031c0,16.009,13.025,29.035,29.035,29.035
			h89.031V486.764z"/>
	</g>
</g>
<g>
</g>
<g>
</g>
<g>
</g>
<g>
</g>
<g>
</g>
<g>
</g>
<g>
</g>
<g>
</g>
<g>
</g>
<g>
</g>
<g>
</g>
<g>
</g>
<g>
</g>
<g>
</g>
<g>
</g>
</svg>
